X: 167
T: the Ld. Kilcubrie
%%VWML:Wrights-3753-p84-0
F: http://www.vwml.org/record/Wrights/3753/p84
%R: reel
B: Daniel Wright "Wright's Compleat Collection of Celebrated Country Dances" 1740 p.84
S: http://library.efdss.org/cgi-bin/dancebooks.cgi
Z: 2014 John Chambers <jc:trillian.mit.edu>
N: This tune has no time signature. The strains should probably be repeated. M: C|
L: 1/8
K: G
%-------------------------
[|\
GDGB A2(GE) | GDGB GDGB |\
GDGB A2(GE) | GDGB degd |\
(e/f/g) (f/g/a) A2(GE) | GcBA G2D2 |]
[|\
gdgb a2(ge) | gdgb gdgb |\
gdgb a2(ge) | gdeg degd |\
(e/f/g) (f/g/a) A2(GE) | GcBA G2D2 |]
%-------------------------
%%begintext align
%% The 1st and 2d Men leads through the two We.
%% and turn in their own places .| the two We does
%% the same :| 1st and 2d Cu. clap hands, the 1st
%% Cu. leads through the 2d .| then the 1st Cu.
%% cross over and half figure at top. :
%%endtext
%-------------------------
%%sep 2 4 300
T: Perfections of Love
T: Longways &c.
%R: reel
B: Daniel Wright "Wright's Compleat Collection of Celebrated Country Dances" 1740 p.84
S: http://library.efdss.org/cgi-bin/dancebooks.cgi
Z: 2014 John Chambers <jc:trillian.mit.edu> M: C|
L: 1/8
K: G
%------------------------- D2 |\
G2d>c B2AB | cBAG G3A |\
B2AG A^c dG | F2E>D D2 |]\
A2 |\
F2(ED) A2AB |
(c/d/e) (dc) B3d |\
ecBA dFGA | B2AG e3d |\
cBAa fdgc | B2A>G G2 |] %------------------------- %%begintext align
%% The 1st Man sett to the 2d Wo. and fall back %% and turn S. .| then 1st Wo. sett to the 2d %% Man, and fall back and turn S. :| the 1st
%% Man change places with the 2d Wo. and 1st %% Wo. change places with the 2d Man at the %% same time .| then the 1st Cu. being in the %% 2d Cu. place, lead thro' cast off and turn :| %%endtext
%------------------------- %%sep 2 4 300
